src/assets/flags/iq.svg

<?xml version="1.0" encoding="UTF-8"?>
<svg xmlns="http://www.w3.org/2000/svg" xmlns:xlink="http://www.w3.org/1999/xlink" width="25px" height="px" viewBox="0 0 25 19" version="1.1">
<g id="surface1">
<path style=" stroke:none;fill-rule:nonzero;fill:rgb(100%,100%,100%);fill-opacity:1;" d="M 0 6.332031 L 25 6.332031 L 25 12.667969 L 0 12.667969 Z M 0 6.332031 "/>
<path style=" stroke:none;fill-rule:nonzero;fill:rgb(80.784315%,6.666667%,14.901961%);fill-opacity:1;" d="M 0 0 L 25 0 L 25 6.332031 L 0 6.332031 Z M 0 0 "/>
<path style=" stroke:none;fill-rule:nonzero;fill:rgb(0%,0%,0.392157%);fill-opacity:1;" d="M 0 12.667969 L 25 12.667969 L 25 19 L 0 19 Z M 0 12.667969 "/>
<path style=" stroke:none;fill-rule:nonzero;fill:rgb(0%,47.843137%,23.921569%);fill-opacity:1;" d="M 15.269531 8.335938 L 15.175781 8.265625 C 15.148438 8.234375 15.175781 8.230469 15.257812 8.253906 C 15.40625 8.300781 15.527344 8.28125 15.621094 8.199219 L 15.707031 8.121094 L 15.8125 8.171875 C 15.878906 8.207031 15.925781 8.222656 15.949219 8.21875 C 15.996094 8.207031 16.089844 8.082031 16.085938 8.039062 C 16.085938 7.988281 16.125 8.003906 16.152344 8.058594 C 16.195312 8.171875 16.132812 8.300781 16.015625 8.328125 C 15.96875 8.34375 15.910156 8.335938 15.839844 8.308594 C 15.742188 8.273438 15.722656 8.273438 15.675781 8.308594 C 15.558594 8.40625 15.394531 8.417969 15.269531 8.335938 M 15.667969 7.96875 C 15.621094 7.882812 15.597656 7.789062 15.597656 7.691406 C 15.601562 7.648438 15.621094 7.636719 15.652344 7.648438 C 15.722656 7.671875 15.734375 7.71875 15.722656 7.859375 C 15.722656 7.984375 15.703125 8.019531 15.667969 7.96875 M 11.042969 7.835938 C 11.035156 7.925781 11.207031 8.15625 11.28125 8.199219 C 11.226562 8.21875 11.164062 8.210938 11.117188 8.234375 C 10.84375 8.511719 9.855469 9.480469 9.679688 9.714844 C 10.214844 9.730469 10.800781 9.710938 11.300781 9.6875 C 11.300781 9.320312 11.644531 9.300781 11.875 9.167969 C 11.992188 9.355469 12.285156 9.34375 12.328125 9.625 L 12.328125 10.847656 L 7.777344 10.847656 C 7.742188 11.035156 7.628906 11.199219 7.46875 11.296875 C 7.308594 11.394531 7.117188 11.421875 6.933594 11.367188 C 7.070312 11.226562 7.304688 11.171875 7.386719 10.972656 C 7.457031 10.527344 7.25 10.257812 7.113281 10 C 7.285156 9.945312 7.449219 9.859375 7.59375 9.75 C 7.433594 10.238281 8.015625 10.1875 8.441406 10.175781 C 8.453125 10.007812 8.449219 9.8125 8.324219 9.785156 C 8.480469 9.722656 8.507812 9.703125 8.777344 9.480469 L 8.777344 10.148438 L 11.929688 10.140625 C 11.929688 9.933594 11.984375 9.59375 11.820312 9.59375 C 11.671875 9.59375 11.820312 10.023438 11.699219 10.023438 L 9.253906 10.023438 L 9.253906 9.605469 C 9.359375 9.496094 9.34375 9.5 10.050781 8.789062 C 10.117188 8.71875 10.617188 8.261719 11.046875 7.835938 Z M 17.136719 7.816406 C 17.308594 7.914062 17.445312 8.039062 17.652344 8.09375 C 17.632812 8.183594 17.550781 8.21875 17.527344 8.308594 L 17.527344 10.179688 C 17.761719 10.230469 17.816406 10.089844 17.925781 10.023438 C 17.953125 10.320312 18.144531 10.609375 18.128906 10.855469 L 17.136719 10.855469 Z M 15.8125 8.820312 C 15.8125 8.820312 16.171875 8.511719 16.171875 8.496094 L 16.171875 10.125 L 16.433594 10.125 L 16.425781 8.300781 C 16.53125 8.191406 16.742188 8.039062 16.789062 7.925781 L 16.789062 10.839844 L 14.503906 10.839844 C 14.46875 10.238281 14.460938 9.613281 15.160156 9.746094 L 15.160156 9.5 C 15.140625 9.460938 15.097656 9.507812 15.09375 9.453125 C 15.203125 9.34375 15.234375 9.316406 15.535156 9.050781 L 15.542969 10.125 L 15.8125 10.125 Z M 14.949219 10.113281 C 14.996094 10.179688 15.167969 10.179688 15.152344 10.054688 C 15.132812 9.953125 14.914062 9.988281 14.949219 10.113281 "/>
<path style=" stroke:none;fill-rule:nonzero;fill:rgb(0%,47.843137%,23.921569%);fill-opacity:1;" d="M 8.460938 11.195312 C 8.460938 11.117188 8.398438 11.054688 8.324219 11.054688 C 8.25 11.054688 8.1875 11.117188 8.1875 11.195312 C 8.1875 11.269531 8.25 11.332031 8.324219 11.332031 C 8.398438 11.332031 8.460938 11.269531 8.460938 11.195312 Z M 8.460938 11.195312 "/>
<path style=" stroke:none;fill-rule:nonzero;fill:rgb(0%,47.843137%,23.921569%);fill-opacity:1;" d="M 12.636719 7.824219 C 12.808594 7.914062 12.945312 8.046875 13.15625 8.101562 C 13.128906 8.183594 13.054688 8.21875 13.03125 8.308594 L 13.03125 10.179688 C 13.265625 10.230469 13.3125 10.097656 13.421875 10.023438 C 13.457031 10.320312 13.640625 10.617188 13.632812 10.855469 L 12.636719 10.855469 Z M 12.636719 7.824219 "/>
</g>
</svg>

<svg xmlns="http://www.w3.org/2000/svg" width="25" height="px" viewBox="0 0 25 19"><path d="M0 6.332h25v6.336H0Zm0 0" style="stroke:none;fill-rule:nonzero;fill:#fff;fill-opacity:1"/><path d="M0 0h25v6.332H0Zm0 0" style="stroke:none;fill-rule:nonzero;fill:#ce1126;fill-opacity:1"/><path d="M0 12.668h25V19H0Zm0 0" style="stroke:none;fill-rule:nonzero;fill:#000001;fill-opacity:1"/><path d="m15.27 8.336-.094-.07q-.042-.048.082-.012.223.07.363-.055l.086-.078.105.05q.101.054.137.048c.047-.012.14-.137.137-.18 0-.05.039-.035.066.02a.202.202 0 0 1-.136.27q-.07.021-.176-.02c-.098-.036-.117-.036-.164 0a.34.34 0 0 1-.406.027m.398-.367a.6.6 0 0 1-.07-.278c.004-.043.023-.054.054-.043.07.024.082.07.07.211q0 .186-.054.11m-4.625-.133c-.008.09.164.32.238.363-.054.02-.117.012-.164.035-.273.278-1.262 1.246-1.437 1.48a22 22 0 0 0 1.62-.027c0-.367.345-.386.575-.519.117.187.41.176.453.457v1.223h-4.55a.67.67 0 0 1-.31.449.66.66 0 0 1-.534.07c.136-.14.37-.195.453-.394.07-.446-.137-.715-.274-.973a1.6 1.6 0 0 0 .48-.25c-.16.488.423.438.848.426.012-.168.008-.364-.117-.39.156-.063.184-.083.453-.306v.668l3.153-.007c0-.207.054-.547-.11-.547-.148 0 0 .43-.12.43H9.253v-.419c.105-.109.09-.105.797-.816.066-.07.566-.527.996-.953Zm6.094-.02c.172.098.308.223.515.278-.02.09-.101.125-.125.215v1.87c.235.051.29-.09.399-.156.027.297.219.586.203.832h-.992ZM15.812 8.82s.36-.308.36-.324v1.629h.262l-.008-1.824c.105-.11.316-.262.363-.375v2.914h-2.285c-.035-.602-.043-1.227.656-1.094V9.5c-.02-.04-.062.008-.066-.047.11-.11.14-.137.441-.402l.008 1.074h.27Zm-.863 1.293c.047.067.219.067.203-.058-.02-.102-.238-.067-.203.058" style="stroke:none;fill-rule:nonzero;fill:#007a3d;fill-opacity:1"/><path d="M8.46 11.195a.14.14 0 0 0-.136-.14.138.138 0 0 0 0 .277.14.14 0 0 0 .137-.137M12.637 7.824c.172.09.308.223.52.278-.028.082-.102.117-.126.207v1.87c.235.051.281-.081.39-.156.036.297.22.594.212.832h-.996Zm0 0" style="stroke:none;fill-rule:nonzero;fill:#007a3d;fill-opacity:1"/></svg>
